X:0682
T:Spanish Dance.
M:2/4
L:1/16
Q:1/4=104
I: :: ||
N:rest added to start of second part
Z:Jack Campin * www.campin.me.uk * 2009
K:D
ag|f2`b2```e2`a2 |d3``e``f2a2|g2ba (gfed)|(cdec) A2ag|f2b2`e2a2|d2e2`f2a2|b2g2`e2c2|d2d2`d2:|
z2|f2`ff   f2`f2 |f2`e2  e4  |g2gg  g2g2 | g2f2  f4  |g2bg bgbg|f2af afaf|g2e2`d2c2|d2d2 d4 |
   d'2d'd' d'2d'2|d'2c'2 c'4 |b2bb  b2b2 | b2a2  a4  |g2bg bgbg|f2af afaf|b2g2`e2c2|d2d2`d2|]
<end>
<start>
